src/components/HostingOption/images/hosting-source-code.svg

<svg width="17" height="14" viewBox="0 0 17 14" fill="none" xmlns="http://www.w3.org/2000/svg">
<path d="M1.70447 6.81711L1.13891 6.32452C0.89874 6.60027 0.892443 7.00902 1.124 7.29204L1.70447 6.81711ZM5.55676 3.53604C5.8288 3.22369 5.79613 2.74994 5.48378 2.4779C5.17143 2.20585 4.69768 2.23852 4.42563 2.55087L5.55676 3.53604ZM4.41073 11.3091C4.67302 11.6297 5.14554 11.677 5.46612 11.4147C5.78671 11.1524 5.83396 10.6799 5.57166 10.3593L4.41073 11.3091ZM2.27003 7.30969L5.55676 3.53604L4.42563 2.55087L1.13891 6.32452L2.27003 7.30969ZM1.124 7.29204L4.41073 11.3091L5.57166 10.3593L2.28494 6.34218L1.124 7.29204Z" fill="white"/>
<path d="M16.0602 6.81711L16.6258 6.32452C16.866 6.60027 16.8723 7.00902 16.6407 7.29204L16.0602 6.81711ZM12.208 3.53604C11.9359 3.22369 11.9686 2.74994 12.2809 2.4779C12.5933 2.20585 13.067 2.23852 13.3391 2.55087L12.208 3.53604ZM13.354 11.3091C13.0917 11.6297 12.6192 11.677 12.2986 11.4147C11.978 11.1524 11.9308 10.6799 12.193 10.3593L13.354 11.3091ZM15.4947 7.30969L12.208 3.53604L13.3391 2.55087L16.6258 6.32452L15.4947 7.30969ZM16.6407 7.29204L13.354 11.3091L12.193 10.3593L15.4798 6.34218L16.6407 7.29204Z" fill="white"/>
<path d="M11.4515 1.60436C11.5642 1.20576 11.3324 0.791307 10.9338 0.678659C10.5352 0.56601 10.1207 0.797821 10.0081 1.19642L11.4515 1.60436ZM6.84309 12.3956C6.73044 12.7942 6.96225 13.2087 7.36085 13.3213C7.75945 13.434 8.1739 13.2022 8.28655 12.8036L6.84309 12.3956ZM10.0081 1.19642L6.84309 12.3956L8.28655 12.8036L11.4515 1.60436L10.0081 1.19642Z" fill="white"/>
</svg>

<svg fill="none" viewBox="0 0 17 14"><path fill="#fff" d="M1.704 6.817l-.565-.492a.75.75 0 00-.015.967l.58-.475zm3.853-3.281a.75.75 0 00-1.131-.985l1.13.985zM4.41 11.309a.75.75 0 101.16-.95l-1.16.95zm-2.141-4l3.287-3.773-1.131-.985-3.287 3.774 1.131.985zm-1.146-.017l3.287 4.017 1.16-.95-3.286-4.017-1.161.95zm14.936-.475l.566-.492a.75.75 0 01.015.967l-.58-.475zm-3.852-3.281a.75.75 0 111.131-.985l-1.131.985zm1.146 7.773a.75.75 0 11-1.161-.95l1.161.95zm2.14-4l-3.286-3.773 1.131-.985 3.287 3.774-1.131.985zm1.147-.017l-3.287 4.017-1.161-.95 3.287-4.017 1.16.95zm-5.19-5.688a.75.75 0 10-1.443-.408l1.444.408zM6.843 12.396a.75.75 0 001.444.408l-1.444-.408zm3.165-11.2l-3.165 11.2 1.444.408 3.164-11.2-1.443-.408z"/></svg>
